X:1
T:Wrentham, 66.66.86
T:Wrentham, 66.66.86
T:Harmonia Sacra, by Joseph Funk, 5th ed., 1851
T:Public Domain Courtesy of the Cyber Hymnal™
C:Harmonia Sacra, by Joseph Funk, 5th ed., 1851
Z:Public Domain
Z:Courtesy of the Cyber Hymnal™
%%score ( 1 2 ) ( 3 4 )
L:1/8
Q:1/4=108
M:3/4
K:C
V:1 treble 
V:2 treble 
V:3 bass 
V:4 bass 
V:1
 [Ec]2 | [Ec][EG] [FA]2 [FA]2 | [EG]4 [Ac]2 | [FA][EG] [FA]2 [GB]2 | [Gc]4 [Gc]2 | %5
 [GB][Ad] [Gd]2 G2 | [Gc][Ge] !fermata![Ge]2 [ce]2 | [Bd][GB] [GB]2 [^FA]2 | G4 [EG]2 | %9
 E[DG] [Ec]2 G2 | A[Gd] !fermata![GB]2 G2 | [FA][Gc] [Ad]2 [GB]2 | [Gc]4 |] %13
V:2
 x2 | x6 | x6 | x6 | x6 | x4 G2 | x6 | x6 | G4 x2 | E x2 G2 x | A x2 G2 x | x6 | x4 |] %13
V:3
 [C,G,]2 | [C,G,][E,C] [F,C]2 [A,C]2 | C4 [C,C]2 | [F,C][C,C] [F,C]2 G,2 | [C,E,G,]4 [C,G,]2 | %5
 G,[D,A,] [G,B,]2 G,2 | [E,G,][E,C] C2 [C,C]2 | [B,,D][C,E] [D,D]2 [D,^F,]2 | G,4 [G,B,]2 | %9
 [C,C][B,,D] [A,,C]2 [E,C]2 | [F,C][D,D] [G,D]2 [E,C]2 | [F,C][E,G,] [D,A,]2 G,2 | [C,G,]4 |] %13
V:4
 x2 | x6 | C4 x2 | x4 G,2 | x6 | G, x2 (G, F,) x | x2 C2 x2 | x6 | G,4 x2 | x6 | x6 | x4 G,2 | %12
 x4 |] %13

